actions/24/im-identi.ca.svg

<?xml version="1.0" encoding="UTF-8" standalone="no"?>
<svg
   width="24"
   height="24"
   version="1.1"
   id="svg7"
   sodipodi:docname="im-identi.ca.svg"
   inkscape:version="1.1.2 (0a00cf5339, 2022-02-04)"
   xmlns:inkscape="http://www.inkscape.org/namespaces/inkscape"
   xmlns:sodipodi="http://sodipodi.sourceforge.net/DTD/sodipodi-0.dtd"
   xmlns="http://www.w3.org/2000/svg"
   xmlns:svg="http://www.w3.org/2000/svg">
  <sodipodi:namedview
     id="namedview9"
     pagecolor="#000000"
     bordercolor="#666666"
     borderopacity="1.0"
     inkscape:pageshadow="2"
     inkscape:pageopacity="0"
     inkscape:pagecheckerboard="0"
     showgrid="false"
     inkscape:zoom="28.416667"
     inkscape:cx="11.982405"
     inkscape:cy="11.964809"
     inkscape:window-width="1596"
     inkscape:window-height="967"
     inkscape:window-x="0"
     inkscape:window-y="29"
     inkscape:window-maximized="1"
     inkscape:current-layer="svg7" />
  <defs
     id="defs3">
    <style
       id="current-color-scheme"
       type="text/css">
   .ColorScheme-Text { color:#eeeeec; } .ColorScheme-Highlight { color:#367bf0; } .ColorScheme-NeutralText { color:#ffcc44; } .ColorScheme-PositiveText { color:#3db47e; } .ColorScheme-NegativeText { color:#dd4747; }
  </style>
  </defs>
  <path
     style="fill:currentColor"
     class="ColorScheme-Text"
     d="M 11,4 C 7.676,4 5,6.7 5,10 v 4 l -0.7232419,2.892968 0.7277705,0.604768 v 0 L 8,16 h 3 c 0.819,0 1.597,-0.2 2.307,-0.5 C 13.178,15.2 13.102,14.9 13.055,14.6 12.427,14.8 11.735,15 11,15 H 5.9999 V 10 C 5.9999,7.2 8.23,5 11,5 c 2.77,0 5,2.2 5,5 0,0 -0.007,0.1 -0.008,0.1 C 16.315,10.1 16.65,10 17,10 17,6.7 14.324,4 11,4 Z m 6,7 c -1.662,0 -3,1.3 -3,3 0,1 0.471,1.8 1.191,2.4 l 1.313566,2.614062 0.978343,0.02492 v 0 L 18.809,16.4 C 19.529,15.8 20,14.9 20,14 20,12.3 18.662,11 17,11 Z"
     id="path5"
     sodipodi:nodetypes="sscccccsccscsscccssscccccss" />
</svg>

<svg xmlns="http://www.w3.org/2000/svg" width="24" height="24" version="1.1">
 <defs>
  <style id="current-color-scheme" type="text/css">
   .ColorScheme-Text { color:#eeeeec; } .ColorScheme-Highlight { color:#367bf0; } .ColorScheme-NeutralText { color:#ffcc44; } .ColorScheme-PositiveText { color:#3db47e; } .ColorScheme-NegativeText { color:#dd4747; }
  </style>
 </defs>
 <path style="fill:currentColor" class="ColorScheme-Text" d="M 11,4 C 7.676,4 5,6.7 5,10 V 14 L 4,18 8,16 H 11 C 11.819,16 12.597,15.8 13.307,15.5 13.178,15.2 13.102,14.9 13.055,14.6 12.427,14.8 11.735,15 11,15 H 5.9999 V 10 C 5.9999,7.2 8.23,5 11,5 13.77,5 16,7.2 16,10 16,10 15.993,10.1 15.992,10.1 16.315,10.1 16.65,10 17,10 17,6.7 14.324,4 11,4 Z M 17,11 C 15.338,11 14,12.3 14,14 14,15 14.471,15.8 15.191,16.4 L 17,20 18.809,16.4 C 19.529,15.8 20,14.9 20,14 20,12.3 18.662,11 17,11 Z"/>
</svg>
